!!!COM: Corelli, Arcangelo
!!!OTL: 
!!!ONM: Opus 5, No. 2
!!!OMV: 2
!!!CDT: 1653/2/17/-1713/1/8/
!!!OCY: Italia
**kern	**kern	**kern	**kern
*clefC	*clefG	*clefG	*clefG
*k[b-]	*k[b-]	*k[b-]	*k[b-]
*F:	*F:	*F:	*F:
*M4/4	*M4/4	*M4/4	*M4/4
=1	=1	=1	=1
1r	1r	1r	4.ff
.	.	.	8ff
.	.	.	8gg
.	.	.	8ff
.	.	.	8gg
.	.	.	8aa
=2	=2	=2	=2
1r	4.b-	1r	4.bb-
.	8b-	.	8bb-
.	8dd	.	8ff
.	8cc	.	8ee
.	8dd	.	8ff
.	8ee	.	8gg
=3	=3	=3	=3
4.F	4a	1r	8ff
.	.	.	8cc
.	8r	.	8ff
8F	8ff	.	8aa
8G	4ff	.	4bb-
8F	.	.	.
8G	4ee-	.	[4ccc
8A	.	.	.
=4	=4	=4	=4
4.B-	4.dd	1r	8ccc]
.	.	.	16bb-
.	.	.	16aa
.	.	.	8bb-
8D	8dd	.	8bb-
8E-	2cc	.	4bb-
8C	.	.	.
8F	.	.	4aa
8FF	.	.	.
=5	=5	=5	=5
8BB-	1r	1r	4.b-
8C	.	.	.
8D	.	.	.
8C	.	.	8b-
8BB-	.	.	8dd
8AA	.	.	8cc
4GG	.	.	8dd
.	.	.	8ee
=6	=6	=6	=6
2FF	4.f	1r	4.a
.	8f	.	8a
2r	8g	.	8b-
.	8f	.	8a
.	8g	.	8b-
.	8a	.	8cc
=7	=7	=7	=7
4.BB-	8B-	1r	8d
.	8c	.	8e-
.	8d	.	8f
8BB-	8c	.	8e-
8D	4B-	.	4d
8C	.	.	.
8D	4b-	.	4dd
8E	.	.	.
=8	=8	=8	=8
8F	4a	1r	4cc
8C	.	.	.
2F	4a	.	4dd
.	4g	.	4b-
[4E-	4g	.	4cc
=9	=9	=9	=9
4E-]	4f	1r	4a
4D	4d	.	4f 4b-
4C	4c	.	4b- 4e-
4F	4c	.	4e- 4a
=10	=10	=10	=10
4BB-	4B-	1r	4b- 4d
4AA	4r	.	8ff
.	.	.	8cc
4BB-	8dd	.	8ff
.	8ee	.	8gg
4AA	8a	.	8ff
.	8a	.	8cc
=11	=11	=11	=11
4GG	2b- 2g	1r	4ff
4C	.	.	4ee
8F	4.f	.	4.a 4.ff
8G	.	.	.
8A	.	.	.
8F	8ff	.	8aa
=12	=12	=12	=12
4.G	8ee-	1r	8gg
.	8dd	.	8ff
.	8ee-	.	8gg
8A	8cc	.	8ff
8B-	4.dd	.	4.ff
8c	.	.	.
8d	.	.	.
8B-	8dd	.	8bb-
=13	=13	=13	=13
4.F	8cc	1r	8aa
.	8b-	.	8gg
.	8cc	.	8aa
8F	8a	.	8ff
4E-	4b-	.	8gg
.	.	.	8aa
4BB-	16r	.	[4bb-
.	16dd	.	.
.	16cc	.	.
.	16b-	.	.
=14	=14	=14	=14
4F	2cc 2f	1r	4bb-]
4FF	.	.	4aa
4BB-	2r	.	4b-
4B-	.	.	8dd
.	.	.	8ff
=15	=15	=15	=15
4E-	2r	1r	8g
.	.	.	8a
4BB-	.	.	16b-
.	.	.	16f
.	.	.	16e-
.	.	.	16d
4F	2c 2e-	.	4b-
4FF	.	.	4a
=16	=16	=16	=16
2BB-	2B-	1r	2d 2b-
4.f	2r	.	2ff
8f	.	.	.
=17	=17	=17	=17
8g	1r	1r	2ee-
8f	.	.	.
8g	.	.	.
8a	.	.	.
8b-	.	.	2dd
8f	.	.	.
[4b-	.	.	.
=18	=18	=18	=18
4b-]	2r	1r	2cc
4a	.	.	.
2b-	4.b-	.	4.dd
.	8b-	.	8dd
=19	=19	=19	=19
2B-	8dd	1r	8ff
.	8cc	.	8ee
.	8dd	.	8ff
.	8ee	.	8gg
2A	4a	.	8ff
.	.	.	8cc
.	8r	.	8ff
.	8a	.	8cc
=20	=20	=20	=20
2G	2b- 2g	1r	4ff
.	.	.	4ee
4.F	4f	.	4ff 4a
.	[4ff	.	4aa
8F	.	.	.
=21	=21	=21	=21
8G	4ff]	1r	2gg
8F	.	.	.
8G	2ee-	.	.
8A	.	.	.
8B-	.	.	2ff
8F	.	.	.
[4B-	4dd	.	.
=22	=22	=22	=22
4B-]	4cc	1r	4ee-
4A	4cc	.	4ff
4B-	4b-	.	4dd
8r	4dd	.	[4bb-
8G	.	.	.
=23	=23	=23	=23
8E-	2cc	1r	4bb-]
8C	.	.	.
8F	.	.	2aa
8E-	.	.	.
8D	2b-	.	.
8BB-	.	.	.
8r	.	.	[4gg
8E-	.	.	.
=24	=24	=24	=24
8C	2a	1r	4gg]
8AA	.	.	.
8D	.	.	4ff#
8DD	.	.	.
4GG	4G	.	4gg 4b- 4d
8r	4g	.	[4ee-
8c	.	.	.
=25	=25	=25	=25
8A	2f	1r	4ee-]
8F	.	.	.
8B-	.	.	2dd
8A-	.	.	.
8G	2e-	.	.
8E-	.	.	.
8r	.	.	[4cc
8A-	.	.	.
=26	=26	=26	=26
8F	2d	1r	4cc]
8D	.	.	.
8G	.	.	4b
8GG	.	.	.
4C	8e-	.	8cc
.	8f	.	8dd
4r	8e-	.	8cc
.	8d	.	8b
=27	=27	=27	=27
4F	8a	1r	8ff
.	8b-	.	8gg
4r	8a	.	8ff
.	8g	.	8ee-
4BB-	8dd	.	8bb-
.	8cc	.	8aa
4r	8b-	.	8gg
.	8a	.	8ff
=28	=28	=28	=28
4E-	8ee-	1r	8gg
.	8dd	.	8ff
4r	8cc	.	4r
.	8b-	.	.
4F	8a	.	8cc
.	8f	.	8a
4D	8r	.	8ff
.	8f	.	8a
=29	=29	=29	=29
4G	4g	1r	4ff 4b-
4C	4g	.	4ee-
4F	4f	.	4ee- 4aa
4BB-	4f	.	4dd 4ff
=30	=30	=30	=30
4E-	4e-	1r	4gg 4dd
4AA	4e-	.	4gg 4cc
4D	4d	.	4ff 4cc
4GG	4d	.	4ff 4b-
=31	=31	=31	=31
4C	4c	1r	4b- 4e-
4FF	4c	.	4e- 4a
8BB-	4B-	.	4d
8C	.	.	.
8D	4b-	.	4dd
8BB-	.	.	.
=32	=32	=32	=32
8F	4f 4b-	1r	4cc
8G	.	.	.
8A	4a	.	4ff
8F	.	.	.
8C	4c	.	4ff 4g
8D	.	.	.
8E-	4cc	.	4ee-
8C	.	.	.
=33	=33	=33	=33
8G	4cc 4G	1r	4dd
8A	.	.	.
8B-	4b-	.	4gg
8G	.	.	.
8D	4d	.	4gg 4a
8E	.	.	.
8F	4dd	.	4ff
8D	.	.	.
=34	=34	=34	=34
4.A	4dd 4a	1r	4ee
.	8r	.	4aa 4cc
8F	8a	.	.
4G	8b	.	4aa
.	8a	.	.
4E	8b	.	4gg
.	8cc#	.	.
=35	=35	=35	=35
8D	8dd	1r	4gg
8E	8a	.	.
8F	2dd	.	4ff
8D	.	.	.
8G	.	.	2ee
8E	.	.	.
8A	4cc#	.	.
8AA	.	.	.
=36	=36	=36	=36
2D	2d	1r	2ff 2a
4G	2g	.	2ff 2b
4GG	.	.	.
=37	=37	=37	=37
2C	2c	1r	2ee- 2g
4F	2A	.	2ee- 2f
4FF	.	.	.
=38	=38	=38	=38
2BB-	2B-	1r	2dd 2f
2E-	4e-	.	4gg 4dd
.	4e-	.	4gg 4cc
=39	=39	=39	=39
4F	4e-	1r	4aa 4cc
4D	4d	.	4f 4b-
4E-	4c	.	4e- 4b-
4F	4c	.	4e- 4a
=40	=40	=40	=40
8BB-	4B-	1r	4d 4b-
8C	.	.	.
8D	4.r	.	8bb-
8BB-	.	.	8ff
8E-	.	.	8gg
8BB-	8b-	.	8ff
[4E-	8ee-	.	8gg
.	8g	.	8b-
=41	=41	=41	=41
4E-]	8a	1r	8cc
.	8f	.	8a
4D	8r	.	8b-
.	8d	.	8f
4C	2e- 2c	.	4b-
4F	.	.	4a
=42	=42	=42	=42
4.B-	2B-	1r	2b- 2d
8B-	.	.	.
8d	2r	.	2bb-
8c	.	.	.
8d	.	.	.
8e	.	.	.
=43	=43	=43	=43
8f	1r	1r	2aa
8c	.	.	.
2f	.	.	.
.	.	.	2gg
4e	.	.	.
=44	=44	=44	=44
4.F	2ff	1r	2aa
8F	.	.	.
8G	2ee-	.	2gg
8F	.	.	.
8G	.	.	.
8A	.	.	.
=45	=45	=45	=45
8B-	2dd	1r	2ff
8F	.	.	.
8B-	.	.	.
8D	.	.	.
8E-	2cc	.	2ee-
8C	.	.	.
8F	.	.	.
8FF	.	.	.
=46	=46	=46	=46
4BB-	4b-	1r	4dd
2B-	2.r	.	8r
.	.	.	8gg
.	.	.	8ee-
.	.	.	8cc
[4A	.	.	8ff
.	.	.	8f
=47	=47	=47	=47
4A]	4d	1r	8b-
.	.	.	8B-
2G	2.r	.	8r
.	.	.	8ee-
.	.	.	8cc
.	.	.	8a
[4F	.	.	8dd
.	.	.	8d
=48	=48	=48	=48
4F]	4g	1r	8b-
.	.	.	8G
2E-	2r	.	8r
.	.	.	8cc
.	.	.	8a
.	.	.	8f
4D	8r	.	8b-
.	8d	.	8b-
=49	=49	=49	=49
8E	4c	1r	4e 4b-
8C	.	.	.
2F	4a	.	4cc
.	2g	.	2b-
4E	.	.	.
=50	=50	=50	=50
4F	4f	1r	4a
4D	8r	.	4ff
.	8f	.	.
4E-	8g	.	2ee-
.	8f	.	.
4C	8g	.	.
.	8a	.	.
=51	=51	=51	=51
4BB-	8b-	1r	2dd
.	8f	.	.
8r	2b-	.	.
8G	.	.	.
8E-	.	.	2cc
8C	.	.	.
8F	[4a	.	.
8E-	.	.	.
=52	=52	=52	=52
8D	4a]	1r	2b-
8BB-	.	.	.
8r	2g	.	.
8E-	.	.	.
8C	.	.	2a
8AA	.	.	.
8D	4f#	.	.
8DD	.	.	.
=53	=53	=53	=53
8GG	4.G	1r	4.b- 4.d 4.gg
8AA	.	.	.
8BB-	.	.	.
8GG	8b-	.	8gg
4.AA	8a	.	8ff
.	8b-	.	8gg
.	8a	.	8ff
8AA	8g	.	8ee-
=54	=54	=54	=54
8BB-	4.f	1r	4.dd
8C	.	.	.
8D	.	.	.
8BB-	8f	.	8dd
4.E-	8e-	.	8cc
.	8f	.	8dd
.	8e-	.	8cc
8BB-	8d	.	8b-
=55	=55	=55	=55
4F	8a	2r	8cc
.	8f	.	8a
8r	4a	.	2ff
8d	.	.	.
8B-	2g	4b-	.
8G	.	.	.
8c	.	4r	[4ee-
8B-	.	.	.
=56	=56	=56	=56
8A	2f	1r	4ee-]
8F	.	.	.
8r	.	.	2dd
8B-	.	.	.
8G	2e-	.	.
8E-	.	.	.
8A	.	.	[4cc
8G	.	.	.
=57	=57	=57	=57
8F	2d	1r	4cc]
8D	.	.	.
8r	.	.	2b-
8G	.	.	.
8E-	2c 2e-	.	.
8C	.	.	.
8F	.	.	4a
8FF	.	.	.
=58	=58	=58	=58
8BB-	4B-	1r	4b- 4d
8C	.	.	.
8D	4dd	.	4ff
8BB-	.	.	.
8E-	4g	.	4b-
8F	.	.	.
8G	4b-	.	4gg
8E-	.	.	.
=59	=59	=59	=59
4F	4.a	1r	4.cc
2f	.	.	.
.	8f	.	8a
.	8g	.	8b-
.	8f	.	8a
[4e-	8g	.	8b-
.	8g	.	8cc
=60	=60	=60	=60
4e-]	4r	1r	8a
.	.	.	8f
4d	8f	.	8b-
.	8f	.	8dd
4E-	8g	.	8b-
.	8a	.	8cc
4BB-	8d	.	[4b-
.	8e-	.	.
=61	=61	=61	=61
2FF	4f	1r	4b-]
.	4e-	.	4a
2BB-	2B-	.	2b- 2d
==	==	==	==
*-	*-	*-	*-
!!!RWG: This file only contains pitch and duration data.
!!!RWG: Transposing instruments are not transposed.
!!!RWG: Durations of rests and tied notes may be interpreted.
!!!RWG: Key is interpreted using the Humdrum key tool.
!!!SCA: 
!!!YOR: 
!!!AGN: violin
!!!AFT: stage1
!!!ENC: F. Bennion
!!!END: 1997/04/15
!!!AST: baroque
!!!YEC: Copyright 1994, Center for Computer Assisted Research in the Humanities
!!!YEM: Rights to all derivative electronic formats reserved.
!!!YEM: Refer to licensing agreement for further details.
!!!YEN: United States of America
!!!EED: W.B. Hewlett
!!!KEY: 2575653641
!!!EMD: Converted from MuseData to Humdrum Aug 9, 1999, by Bret Aarden using muse2kern.
!!!VTS: 319293758
